polaris-icons/icons/newicons/RiskMajor.svg

<svg width="20" height="20" viewBox="0 0 20 20" fill="none" xmlns="http://www.w3.org/2000/svg">
<path d="M9.99994 6.75C10.4142 6.75 10.7499 7.08579 10.7499 7.5V11C10.7499 11.4142 10.4142 11.75 9.99994 11.75C9.58573 11.75 9.24994 11.4142 9.24994 11V7.5C9.24994 7.08579 9.58573 6.75 9.99994 6.75Z" fill="black"/>
<path d="M11 13.5C11 14.0523 10.5523 14.5 10 14.5C9.44772 14.5 9 14.0523 9 13.5C9 12.9477 9.44772 12.5 10 12.5C10.5523 12.5 11 12.9477 11 13.5Z" fill="black"/>
<path fill-rule="evenodd" clip-rule="evenodd" d="M5.53258 8.79524C4.54923 10.6717 3.55252 12.5736 3.32231 13.0387C2.93005 13.8312 2.82425 14.8703 3.41468 15.765C4.00446 16.6587 5.01798 17 5.99992 17L14 17C14.982 17 15.9955 16.6587 16.5853 15.765C17.1757 14.8703 17.0699 13.8312 16.6777 13.0387C16.4478 12.5743 15.4537 10.6774 14.4718 8.80378L14.4397 8.7425C13.4319 6.81951 12.4453 4.93658 12.2332 4.50815C11.8446 3.72282 11.0757 3 10 3C8.92442 3 8.15556 3.72273 7.76681 4.50794C7.55463 4.93652 6.56791 6.81961 5.56021 8.74251L5.53258 8.79524ZM4.66665 13.7041C4.88913 13.2546 5.89115 11.3425 6.89228 9.43218C7.89111 7.52622 8.88906 5.62193 9.11109 5.17347C9.55565 4.27551 10.4445 4.27551 10.8889 5.17347C11.1112 5.62268 12.1121 7.53258 13.1126 9.44173C14.1121 11.3489 15.1112 13.2553 15.3333 13.7041C15.7778 14.602 15.3333 15.5 14 15.5L5.99992 15.5C4.66665 15.5 4.22221 14.602 4.66665 13.7041Z" fill="black"/>
</svg>

<svg viewBox="0 0 20 20" fill="none" xmlns="http://www.w3.org/2000/svg"><path d="M10 6.75a.75.75 0 0 1 .75.75v3.5a.75.75 0 1 1-1.5 0v-3.5a.75.75 0 0 1 .75-.75Z" fill="#5C5F62"/><path d="M11 13.5a1 1 0 1 1-2 0 1 1 0 0 1 2 0Z" fill="#5C5F62"/><path fill-rule="evenodd" clip-rule="evenodd" d="M5.533 8.795c-.984 1.877-1.98 3.779-2.21 4.244-.393.792-.499 1.831.092 2.726.59.894 1.603 1.235 2.585 1.235h8c.982 0 1.995-.341 2.585-1.235.59-.895.485-1.934.093-2.726-.23-.465-1.224-2.362-2.206-4.235l-.032-.062a471.431 471.431 0 0 1-2.207-4.234c-.388-.785-1.157-1.508-2.233-1.508s-1.844.723-2.233 1.508c-.212.429-1.2 2.312-2.207 4.235l-.027.052Zm-.866 4.91c.222-.45 1.224-2.363 2.225-4.273a464.05 464.05 0 0 0 2.22-4.259c.444-.897 1.332-.897 1.777 0 .222.45 1.223 2.36 2.224 4.269 1 1.907 1.998 3.813 2.22 4.262.445.898 0 1.796-1.333 1.796h-8c-1.333 0-1.778-.898-1.333-1.796Z" fill="#5C5F62"/></svg>
